flaticon/dialogue/chat-20.svg

<svg xmlns="http://www.w3.org/2000/svg" width="32" height="32" viewBox="0 0 24 24">
    <path d="M 12 0.601562 C 5.382812 0.601562 0 5.445312 0 11.398438 C 0 13.480469 0.660156 15.5 1.90625 17.242188 C 1.671875 19.855469 1.039062 21.796875 0.117188 22.71875 C -0.00390625 22.839844 -0.0351562 23.023438 0.0429688 23.179688 C 0.109375 23.316406 0.25 23.398438 0.398438 23.398438 C 0.417969 23.398438 0.4375 23.398438 0.457031 23.394531 C 0.617188 23.375 4.382812 22.832031 7.101562 21.261719 C 8.648438 21.882812 10.296875 22.199219 12 22.199219 C 18.617188 22.199219 24 17.355469 24 11.398438 C 24 5.445312 18.617188 0.601562 12 0.601562 Z M 12 21.398438 C 10.605469 21.398438 9.253906 21.171875 7.96875 20.726562 C 9.601562 19.710938 9.605469 19.636719 9.601562 19.402344 C 9.601562 19.261719 9.527344 19.128906 9.40625 19.058594 C 9.222656 18.949219 8.988281 19 8.871094 19.171875 C 8.652344 19.347656 7.707031 19.953125 6.863281 20.472656 C 5.078125 21.550781 2.675781 22.152344 1.339844 22.425781 C 2.222656 20.957031 2.578125 18.832031 2.71875 17.160156 C 2.726562 17.0625 2.699219 16.96875 2.640625 16.890625 C 1.4375 15.257812 0.800781 13.359375 0.800781 11.398438 C 0.800781 5.886719 5.824219 1.398438 12 1.398438 C 18.175781 1.398438 23.199219 5.886719 23.199219 11.398438 C 23.199219 16.914062 18.175781 21.398438 12 21.398438 Z M 12 21.398438"/>
    <path d="M6.398438 8.605469L12.398438 8.605469C12.621094 8.605469 12.800781 8.425781 12.800781 8.207031 12.800781 7.984375 12.621094 7.804688 12.398438 7.804688L6.398438 7.804688C6.179688 7.804688 6 7.984375 6 8.207031 6 8.425781 6.179688 8.605469 6.398438 8.605469zM17.601562 11.007812L6.398438 11.007812C6.179688 11.007812 6 11.183594 6 11.40625 6 11.625 6.179688 11.804688 6.398438 11.804688L17.601562 11.804688C17.820312 11.804688 18 11.625 18 11.40625 18 11.183594 17.820312 11.007812 17.601562 11.007812zM17.601562 14.207031L6.398438 14.207031C6.179688 14.207031 6 14.386719 6 14.605469 6 14.828125 6.179688 15.007812 6.398438 15.007812L17.601562 15.007812C17.820312 15.007812 18 14.828125 18 14.605469 18 14.386719 17.820312 14.207031 17.601562 14.207031zM17.601562 14.207031"/>
</svg>

<svg xmlns="http://www.w3.org/2000/svg" width="32" height="32" viewBox="0 0 24 24">
    <path d="M12 .602C5.383.602 0 5.445 0 11.398c0 2.082.66 4.102 1.906 5.844-.234 2.613-.867 4.555-1.789 5.477a.397.397 0 0 0 .281.68c.02 0 .04 0 .059-.004.16-.02 3.926-.563 6.645-2.133 1.546.62 3.195.937 4.898.937 6.617 0 12-4.844 12-10.8C24 5.444 18.617.601 12 .601zm0 20.796c-1.395 0-2.746-.226-4.031-.671 1.633-1.016 1.636-1.09 1.633-1.325a.398.398 0 0 0-.196-.343.4.4 0 0 0-.535.113c-.219.176-1.164.781-2.008 1.3-1.785 1.079-4.187 1.68-5.523 1.954.883-1.469 1.238-3.594 1.379-5.266a.392.392 0 0 0-.078-.27C1.437 15.259.8 13.36.8 11.399c0-5.511 5.023-10 11.199-10s11.2 4.489 11.2 10c0 5.516-5.024 10-11.2 10zm0 0"/>
    <path d="M6.398 8.605h6a.401.401 0 1 0 0-.8h-6a.401.401 0 0 0 0 .8zm0 0M17.602 11.008H6.398a.398.398 0 1 0 0 .797h11.204a.398.398 0 1 0 0-.797zm0 0M17.602 14.207H6.398a.4.4 0 0 0 0 .8h11.204a.401.401 0 0 0 0-.8zm0 0"/>
</svg>
